X:1
T:Vals Akabat, förenklad version
R:Vals
Z:Anton Teljebäck
M:3/4
L:1/8
K:A
|:cc |c2 c(c c)c | (cB) Az cc | c2 c(c c)c | (cB) Az cc |c2 c(c c)c | (cB) Az cc | B2 E(F F)G | Az A2 :|
|: Ez E2z2 | A2 B2 c2 | d2 c2 B2 | Az E2z2 | F2 F(F F)F | Ez E2z2 | Ez E2z2 | A2 B2 c2 | d2 c2 B2 | Az E2z2 |B2 E(F F)G  | Az A2z2:|

